images/icons/football.svg

<svg width="75" height="75" viewBox="0 0 75 75" fill="none" xmlns="http://www.w3.org/2000/svg">
<path d="M74.9166 37.4894C74.9429 36.5981 75.1779 23.8596 67.6392 15.5672C67.3042 14.826 65.7154 11.8386 60.588 8.18736C58.3148 6.42415 55.9004 4.85096 53.3693 3.48369L53.3593 3.47869C53.0393 3.30744 46.7868 0 39.1981 0C38.6219 0 38.0519 0.0337495 37.4882 0.0724989V0.0624989C31.702 -0.063749 25.9545 1.42498 22.4908 2.9887C19.4183 4.37618 16.0071 6.70239 15.7608 6.88239C11.5059 9.26235 3.43717 18.8134 2.79842 23.8746C0.21969 27.1708 -1.93529 41.9768 2.80342 50.9954C6.1259 63.5289 18.6333 69.8013 19.6283 70.2826C20.2333 70.6688 27.0495 74.8825 35.4232 74.8825C35.7744 74.8825 37.8982 75 38.6556 75C47.7068 75 61.1192 68.6201 63.9267 63.6227C71.6404 57.9803 75.6391 43.4393 74.9166 37.4894ZM19.697 56.3178C16.1108 50.5167 14.0671 42.9368 13.6296 41.1956C14.7646 39.4943 20.3633 31.2395 23.5533 28.7558C25.3595 29.0883 32.9019 30.4732 40.0156 31.7607C40.9094 34.0769 44.8306 44.2968 45.9531 48.2417C44.7156 49.7092 39.8544 55.3691 35.0682 59.8015C29.987 59.8253 21.3445 56.8941 19.697 56.3178ZM64.7792 15.7247C64.7642 16.2872 64.6304 18.2872 63.673 20.5834C61.7717 19.6122 56.993 17.5322 50.4431 17.181C49.4518 15.7172 45.7218 10.6136 39.8306 7.07363C40.6369 5.49616 41.7594 3.57244 42.4156 2.9862C42.6281 2.9262 42.9581 2.8712 43.4606 2.8712C46.6193 2.8712 52.0768 4.93992 52.5518 5.12366C53.0555 5.38991 62.8655 10.6723 64.7792 15.7247ZM12.2158 40.0143C7.93713 39.2843 5.3934 37.9544 4.63341 37.5044C3.04217 31.7332 4.32341 25.4958 4.52091 24.6021C6.0909 21.7946 10.5609 14.6385 13.5096 13.2798C16.5658 12.656 20.377 13.431 21.9295 13.8098C21.7833 15.8285 21.502 21.4684 22.337 27.387C18.9545 30.1095 13.6008 37.9456 12.2158 40.0143ZM37.1057 1.91247C38.0657 1.98372 39.4744 2.19371 40.4394 2.47996C39.4769 3.75994 38.4906 5.65741 38.0244 6.59489C36.0619 6.91613 28.6082 8.34111 22.7608 12.1323C21.582 11.8198 18.0221 10.9861 14.6508 11.2736C15.4858 9.65734 16.7333 8.46236 16.8671 8.33986C17.3308 8.00737 26.2582 1.76122 37.1057 1.89622V1.91247ZM60.9755 49.5279C59.513 49.4679 53.878 49.1467 47.6993 47.6955C46.5156 43.568 42.6069 33.3907 41.7131 31.0757C44.5567 27.0226 47.4436 22.9999 50.3731 19.0084C57.483 19.3984 62.4755 21.9921 63.4417 22.5334C67.5604 29.157 68.4642 35.9219 68.5879 37.0519C66.4004 43.8593 62.0742 48.4429 60.9755 49.5279ZM2.06843 33.1482C2.17343 34.7307 2.42717 36.3969 2.88592 38.0444C2.47349 39.1119 2.18738 40.224 2.03343 41.3581C1.77237 38.6271 1.78409 35.8769 2.06843 33.1482ZM14.1233 62.3465C16.0083 60.5302 18.3321 58.7628 19.2333 58.0953C21.2708 58.8128 29.6382 61.6415 34.9719 61.6415C35.8807 62.8602 38.8519 66.6764 42.4944 69.5938C40.2269 71.8126 36.9519 72.86 36.3732 73.0338C26.2145 73.3063 16.3208 67.5964 14.1233 62.3465ZM40.9519 73.0188C42.1044 72.3475 43.3056 71.4638 44.2994 70.3451C45.9206 70.1213 52.878 68.9239 59.1655 64.3052C59.5805 64.3502 60.2642 64.4052 61.028 64.3839C57.2555 68.0801 48.0506 72.2088 40.9519 73.0188ZM60.2317 62.549C62.4905 56.6641 62.3942 52.2266 62.283 50.8092C63.523 49.5942 67.7779 45.0605 70.1392 38.1681C71.4117 38.3806 72.2391 38.7044 72.6316 38.8856C72.7679 39.3856 72.9954 40.5406 72.8666 42.2918C71.9041 48.5954 68.5817 58.0415 62.7617 62.2177C62.1767 62.5165 61.1467 62.5815 60.2317 62.549Z" fill="#034694"/>
</svg>

<svg xmlns="http://www.w3.org/2000/svg" fill="none" viewBox="0 0 75 75"><path fill="#034694" d="M74.917 37.49c.026-.892.26-13.63-7.278-21.923-.335-.741-1.924-3.728-7.051-7.38a52.455 52.455 0 0 0-7.219-4.703l-.01-.005C53.04 3.307 46.787 0 39.2 0c-.577 0-1.147.034-1.71.072v-.01C31.701-.064 25.954 1.425 22.49 2.99c-3.073 1.387-6.484 3.713-6.73 3.893-4.255 2.38-12.324 11.931-12.963 16.993-2.578 3.296-4.733 18.102.005 27.12 3.323 12.534 15.83 18.806 16.825 19.288.605.386 7.421 4.6 15.795 4.6.351 0 2.475.117 3.233.117 9.05 0 22.463-6.38 25.27-11.377 7.714-5.643 11.713-20.184 10.99-26.134zm-55.22 18.828c-3.586-5.801-5.63-13.381-6.067-15.122 1.135-1.702 6.733-9.956 9.923-12.44 1.806.332 9.349 1.717 16.463 3.005.893 2.316 4.815 12.536 5.937 16.48-1.237 1.468-6.099 7.128-10.885 11.56-5.081.024-13.723-2.907-15.371-3.483zm45.082-40.593c-.015.562-.149 2.562-1.106 4.858-1.901-.97-6.68-3.05-13.23-3.402-.991-1.464-4.721-6.567-10.612-10.107.806-1.578 1.928-3.502 2.585-4.088.212-.06.542-.115 1.045-.115 3.158 0 8.616 2.069 9.09 2.253.505.266 10.314 5.548 12.228 10.6zm-52.563 24.29c-4.279-.73-6.823-2.06-7.583-2.51-1.59-5.772-.31-12.01-.112-12.903 1.57-2.807 6.04-9.963 8.989-11.322 3.056-.624 6.867.151 8.42.53-.147 2.018-.428 7.658.407 13.577-3.383 2.723-8.736 10.559-10.121 12.627zm24.89-38.103c.96.072 2.368.282 3.333.568-.962 1.28-1.948 3.177-2.415 4.115-1.962.321-9.416 1.746-15.263 5.537-1.179-.312-4.739-1.146-8.11-.858.835-1.617 2.082-2.812 2.216-2.934.464-.333 9.391-6.579 20.239-6.444v.016zm23.87 47.616c-1.463-.06-7.098-.381-13.277-1.832-1.183-4.128-5.092-14.305-5.986-16.62a695.72 695.72 0 0 1 8.66-12.068c7.11.39 12.102 2.984 13.069 3.525 4.118 6.624 5.022 13.389 5.146 14.519-2.188 6.807-6.514 11.39-7.612 12.476zM2.067 33.148a24.34 24.34 0 0 0 .818 4.896 14.67 14.67 0 0 0-.853 3.314 41.297 41.297 0 0 1 .035-8.21zm12.055 29.198c1.885-1.816 4.21-3.583 5.11-4.25 2.038.717 10.405 3.546 15.739 3.546.909 1.218 3.88 5.034 7.522 7.952-2.267 2.219-5.542 3.266-6.12 3.44-10.16.272-20.053-5.438-22.25-10.688zM40.952 73.02c1.152-.672 2.354-1.555 3.347-2.674 1.622-.224 8.579-1.421 14.867-6.04.415.045 1.098.1 1.862.079-3.773 3.696-12.977 7.825-20.076 8.635zm19.28-10.47c2.258-5.885 2.162-10.322 2.051-11.74 1.24-1.215 5.495-5.748 7.856-12.64 1.273.212 2.1.535 2.493.717.136.5.363 1.655.235 3.406-.963 6.303-4.285 15.75-10.105 19.926-.585.298-1.615.363-2.53.331z"/></svg>
